X:312
T:
R:polska
S:Efter L. Lagergren, Likmide i Hemse.
O:Gotland, Hemse
M:3/4
L:1/16
K:D
D2FA d2cB AGFE|[DFA]2d2[A,EA]2c2 d4|LA4 LG4 LF4|d2df edcB A4|
FA,FA GA,GA FA,FA|dcdf edcB B2A2|FGEF GABc B3g|fedc [ce]4 d4:|
|:DFAF dAFA DFAF|GA,GA GA,GA GA,GA|DFAF dAFA DFAF|GA,GA GA,GA GA,GA|
dcdf edcB B2A2|afdf gece e2d2|dABG AFGE E2g2|fedc e3d d4:|

